papirus/48x48/apps/tomahawk.svg

<svg height="48" width="48" xmlns="http://www.w3.org/2000/svg" xmlns:xlink="http://www.w3.org/1999/xlink"><clipPath id="a"><circle cx="286" cy="26" r="10"/></clipPath><path d="m24 4a20 20 0 0 0 -20 20 20 20 0 0 0  20 20 20 20 0 0 0  20-20 20 20 0 0 0 -20-20z" fill="#e74c3c"/><path d="m24 10a15 15 0 0 1 15 15 15 15 0 0 1 -6 11.982v-17.982c0-1.108-.892-2-2-2h-1c-1.108 0-2 .892-2 2v4.838l-5.504-3.207-6.002-3.498a.99575 1.0047 0 0 0 -.476-.133.99575 1.0047 0 0 0 -1.018 1.004v13.99a.99575 1.0047 0 0 0 1.494.871l6.002-3.498 5.504-3.205v12.838c0 .152.021.298.053.439a15 15 0 0 1 -4.053.561 15 15 0 0 1 -15-15 15 15 0 0 1  15-15z" opacity=".2"/><path d="m24 9a15 15 0 0 1 15 15 15 15 0 0 1 -6 11.982v-17.982c0-1.108-.892-2-2-2h-1c-1.108 0-2 .892-2 2v4.838l-5.504-3.207-6.002-3.498a.99575 1.0047 0 0 0 -.476-.133.99575 1.0047 0 0 0 -1.018 1.004v13.99a.99575 1.0047 0 0 0 1.494.871l6.002-3.498 5.504-3.205v12.838c0 .152.021.298.053.439a15 15 0 0 1 -4.053.561 15 15 0 0 1 -15-15 15 15 0 0 1  15-15z" fill="#fff"/><circle clip-path="url(#a)" cx="286" cy="26" opacity="0" r="10" stroke-width=".45455" transform="matrix(2 0 0 2 -548 -28)"/><circle clip-path="url(#a)" cx="286" cy="26" opacity="0" r="10" stroke-width=".90909" transform="matrix(2 0 0 2 -548 -28)"/><path d="m24 4a20 20 0 0 0 -20 20 20 20 0 0 0  .0214844.417969 20 20 0 0 1  19.9785156-19.417969 20 20 0 0 1  19.978516 19.582031 20 20 0 0 0  .021484-.582031 20 20 0 0 0 -20-20z" fill="#fff" opacity=".2"/><path d="m4.0214844 23.417969a20 20 0 0 0 -.0214844.582031 20 20 0 0 0  20 20 20 20 0 0 0  20-20 20 20 0 0 0 -.021484-.417969 20 20 0 0 1 -19.978516 19.417969 20 20 0 0 1 -19.9785156-19.582031z" opacity=".3"/></svg>

<?xml version="1.0" encoding="UTF-8" standalone="no"?>
<!-- Created with Inkscape (http://www.inkscape.org/) -->

<svg
   xmlns:dc="http://purl.org/dc/elements/1.1/"
   xmlns:cc="http://creativecommons.org/ns#"
   xmlns:rdf="http://www.w3.org/1999/02/22-rdf-syntax-ns#"
   xmlns:svg="http://www.w3.org/2000/svg"
   xmlns="http://www.w3.org/2000/svg"
   xmlns:sodipodi="http://sodipodi.sourceforge.net/DTD/sodipodi-0.dtd"
   xmlns:inkscape="http://www.inkscape.org/namespaces/inkscape"
   id="svg2817"
   height="48"
   width="48"
   version="1.0"
   inkscape:version="0.91 r13725"
   sodipodi:docname="tomahawk.svg">
  <sodipodi:namedview
     pagecolor="#ffffff"
     bordercolor="#666666"
     borderopacity="1"
     objecttolerance="10"
     gridtolerance="10"
     guidetolerance="10"
     inkscape:pageopacity="0"
     inkscape:pageshadow="2"
     inkscape:window-width="1600"
     inkscape:window-height="843"
     id="namedview12"
     showgrid="false"
     inkscape:zoom="4.9166667"
     inkscape:cx="-42.101695"
     inkscape:cy="24"
     inkscape:window-x="0"
     inkscape:window-y="0"
     inkscape:window-maximized="1"
     inkscape:current-layer="svg2817" />
  <metadata
     id="metadata57">
    <rdf:RDF>
      <cc:Work
         rdf:about="">
        <dc:format>image/svg+xml</dc:format>
        <dc:type
           rdf:resource="http://purl.org/dc/dcmitype/StillImage" />
        <dc:title />
      </cc:Work>
    </rdf:RDF>
  </metadata>
  <defs
     id="defs2819">
    <clipPath
       id="clipPath4186"
       clipPathUnits="userSpaceOnUse">
      <circle
         id="path4188"
         style="color:#000000"
         cx="286"
         cy="26"
         r="10"
         fill="url(#linearGradient4190)" />
    </clipPath>
  </defs>
  <path
     style="color:#000000;fill:#e74c3c;fill-opacity:1"
     d="M 24,4 A 20,20 0 0 0 4,24 20,20 0 0 0 24,44 20,20 0 0 0 44,24 20,20 0 0 0 24,4 Z"
     id="path4146" />
  <path
     id="path4148"
     d="M 24,10 A 15,15 0 0 1 39,25 15,15 0 0 1 33,36.982 L 33,19 c 0,-1.108 -0.892,-2 -2,-2 l -1,0 c -1.108,0 -2,0.892 -2,2 l 0,4.838 -5.504,-3.207 -6.002,-3.498 A 0.99575,1.0047 0 0 0 16.018,17 0.99575,1.0047 0 0 0 15,18.004 l 0,13.99 a 0.99575,1.0047 0 0 0 1.494,0.871 L 22.496,29.367 28,26.162 28,39 c 0,0.152 0.021,0.298 0.053,0.439 A 15,15 0 0 1 24,40 15,15 0 0 1 9,25 15,15 0 0 1 24,10 Z"
     style="color:#000000;opacity:0.2;fill:#000000;fill-opacity:1"
     inkscape:connector-curvature="0" />
  <path
     style="color:#000000;fill:#ffffff;fill-opacity:1"
     d="M 24,9 A 15,15 0 0 1 39,24 15,15 0 0 1 33,35.982 L 33,18 c 0,-1.108 -0.892,-2 -2,-2 l -1,0 c -1.108,0 -2,0.892 -2,2 l 0,4.838 -5.504,-3.207 -6.002,-3.498 A 0.99575,1.0047 0 0 0 16.018,16 0.99575,1.0047 0 0 0 15,17.004 l 0,13.99 a 0.99575,1.0047 0 0 0 1.494,0.871 L 22.496,28.367 28,25.162 28,38 c 0,0.152 0.021,0.298 0.053,0.439 A 15,15 0 0 1 24,39 15,15 0 0 1 9,24 15,15 0 0 1 24,9 Z"
     id="path4230" />
  <circle
     id="path4240"
     opacity="0"
     style="color:#000000"
     clip-path="url(#clipPath4186)"
     cx="286"
     transform="matrix(2,0,0,2,-548,-28)"
     cy="26"
     r="10"
     stroke-width=".45455" />
  <circle
     id="path4242"
     opacity="0"
     style="color:#000000"
     clip-path="url(#clipPath4186)"
     cx="286"
     transform="matrix(2,0,0,2,-548,-28)"
     cy="26"
     r="10"
     stroke-width=".90909" />
  <path
     style="color:#000000;fill:#ffffff;fill-opacity:1;opacity:0.2"
     d="M 24 4 A 20 20 0 0 0 4 24 A 20 20 0 0 0 4.0214844 24.417969 A 20 20 0 0 1 24 5 A 20 20 0 0 1 43.978516 24.582031 A 20 20 0 0 0 44 24 A 20 20 0 0 0 24 4 z "
     id="path4139" />
  <path
     style="color:#000000;fill:#000000;fill-opacity:1;opacity:0.3"
     d="M 4.0214844 23.417969 A 20 20 0 0 0 4 24 A 20 20 0 0 0 24 44 A 20 20 0 0 0 44 24 A 20 20 0 0 0 43.978516 23.582031 A 20 20 0 0 1 24 43 A 20 20 0 0 1 4.0214844 23.417969 z "
     id="path4144" />
</svg>
